X: 15101
T: Ghoid Iad Mo Bhean Uam An Raoir
R: strathspey
M: 4/4
K: Bminor
fede dBB2|dBAB AFE2|fede dBB2|AEFA B3z:|
B2BA B2B2|AFEF DEFA|B2BA B2B2|AEFA B3z:|

